X: 28904
T: Na Caill A' Chaileag Laghach
R: reel
M: 4/4
K: Amixolydian
|:e2cA Bcdf|eAcA eAcA|dBcA Bcdf|ecac e3f:|
|:ecac Bcdf|ecae feaf|gaec Bcdf|ecac e3f:|

